X: 345
T: The trip to Galway
C: anon.
O: Ireland
B: Francis O'Neill: "The Dance Music of Ireland" (1907) no. 345
R: Double jig
Z: Transcribed by Frank Nordberg - http://www.musicaviva.com
F: http://www.musicaviva.com/abc/tunes/ireland/oneill-1001/oneill-1001-034
5.abc
M: 6/8
L: 1/8
K: Dm
B|AFD DFA|cdc AGF|(E/F/G)(D C)DC|EFG Ac=B|AFD DF(G|A)=B^c d2e|fed ed(
c|A)dd d2:|
||e|fed afd|(d/e/f)(g a)fd|edc gec|(c/d/e)(f g)fe|fed edc|(d/g/f)(d c)AG|
FGA c=B(C|A)dd d2:|
W:
W:
W: From Musica Viva - http://www.musicaviva.com
W: the Internet center for free sheet music downloads.


